svgs/light/bowling-ball-pin.svg

<svg xmlns="http://www.w3.org/2000/svg" viewBox="0 0 576 512"><!-- Font Awesome Pro 6.0.0-alpha2 by @fontawesome - https://fontawesome.com License - https://fontawesome.com/license (Commercial License) --><path d="M119.998 224C106.729 224 96 234.688 96 248S106.729 272 119.998 272C133.271 272 144 261.312 144 248S133.271 224 119.998 224ZM200 240C186.729 240 176 250.688 176 264S186.729 288 200 288S224 277.312 224 264S213.271 240 200 240ZM200 160C186.729 160 176 170.688 176 184S186.729 208 200 208S224 197.312 224 184S213.271 160 200 160ZM208 96C93.133 96 0 189.098 0 304S93.133 512 208 512S416 418.902 416 304S322.867 96 208 96ZM208 480C110.953 480 32 401.047 32 304S110.953 128 208 128S384 206.953 384 304S305.047 480 208 480ZM549.031 264.734C536.5 235.438 524.656 207.75 524.656 181.031C524.656 170.437 528.531 160.031 533 147.984C539.094 131.594 546.656 111.203 546.656 83.547C546.656 28.797 509.125 0.078 471.906 0C434.844 0 397.344 28.703 397.344 83.547C397.344 111.203 404.906 131.594 411 147.984C415.469 160.031 419.344 170.438 419.344 181.031C419.344 183.602 418.766 186.219 418.557 188.805C427.332 204.816 434.133 222.008 439.1 239.973C444.568 224.25 448.887 208.281 450.301 192H493.699C496.25 221.344 507.844 249.781 519.625 277.328C532.156 306.625 544 334.297 544 361.016C544 406.344 525.938 442.219 510.625 472.578C508.312 477.156 503.781 480 498.844 480H445.219C440.281 480 435.781 477.172 432.875 471.438C426.328 458.527 419.234 443.953 413.207 428C406.643 438.844 399.383 449.195 391.236 458.828C395.84 469.008 400.584 478.48 404.969 487.125C412.75 502.469 428.188 512 445.219 512H498.844C515.906 512 531.375 502.438 540 485.438C555.188 455.266 576 413.953 576 361.016C576 327.75 562.281 295.719 549.031 264.734ZM495.484 160H448.516C442.385 135.312 429.344 115.922 429.344 83.547C429.344 47.938 450.719 32 471.969 32C493.219 32.047 514.656 48 514.656 83.547C514.656 116.066 501.75 134.766 495.484 160Z"/></svg>

<svg xmlns="http://www.w3.org/2000/svg" viewBox="0 0 576 512"><!--! Font Awesome Pro 6.3.0 by @fontawesome - https://fontawesome.com License - https://fontawesome.com/license (Commercial License) Copyright 2023 Fonticons, Inc. --><path d="M119.1 224C106.7 224 96 234.7 96 248S106.7 272 119.1 272C133.3 272 144 261.3 144 248S133.3 224 119.1 224zM200 240C186.7 240 176 250.7 176 264S186.7 288 200 288S224 277.3 224 264S213.3 240 200 240zM200 160C186.7 160 176 170.7 176 184S186.7 208 200 208S224 197.3 224 184S213.3 160 200 160zM208 96C93.13 96 0 189.1 0 304S93.13 512 208 512S416 418.9 416 304S322.9 96 208 96zM208 480C110.1 480 32 401 32 304S110.1 128 208 128S384 206.1 384 304S305 480 208 480zM549 264.7c-12.53-29.3-24.38-56.98-24.38-83.7c0-10.59 3.875-21 8.344-33.05c6.094-16.39 13.66-36.78 13.66-64.44c0-54.75-37.53-83.47-74.75-83.55c-37.06 0-74.56 28.7-74.56 83.55c0 27.66 7.562 48.05 13.66 64.44c4.469 12.05 8.344 22.45 8.344 33.05c0 2.57-.5781 5.188-.7871 7.773c8.775 16.01 15.58 33.2 20.54 51.17C444.6 224.3 448.9 208.3 450.3 192h43.4c2.551 29.34 14.14 57.78 25.93 85.33C532.2 306.6 544 334.3 544 361c0 45.33-18.06 81.2-33.38 111.6C508.3 477.2 503.8 480 498.8 480h-53.63c-4.938 0-9.438-2.828-12.34-8.562c-6.547-12.91-13.64-27.48-19.67-43.44c-6.564 10.84-13.82 21.2-21.97 30.83c4.604 10.18 9.348 19.65 13.73 28.3C412.8 502.5 428.2 512 445.2 512h53.63c17.06 0 32.53-9.562 41.16-26.56C555.2 455.3 576 413.1 576 361C576 327.8 562.3 295.7 549 264.7zM495.5 160h-46.97c-6.131-24.69-19.17-44.08-19.17-76.45C429.3 47.94 450.7 32 471.1 32c21.25 .0469 42.69 16 42.69 51.55C514.7 116.1 501.8 134.8 495.5 160z"/></svg>
